X: 73
T: Falk Tale Song (b)
N: Derived from pawnee73.krn
O: Oklahoma, U.S.A.
N: from Pawnee Music by Frances Densmore, 1926
Z: transcribed to **kern format by David Huron, August 2000
C: Skidi and Chaui Bands, 1919
L: 1/4
M: 2/4
Q: 1/4=88
K: Bb clef=bass
%%linebreak <none>
B,B, | 
FF[M:3/4] | 
E/ D/ C/ B,/-B,[M:2/4] | 
B,B, | 
CC[M:3/4] | 
B,/ A,/ G,/ F,/-F,[M:2/4] | 
B,B, | 
CC[M:3/4] | 
B,/ A,/ G,/ F,/-F,[M:2/4] | 
B,B,CC[M:3/4] | 
B,/ A,/ G,/ F,/-F, |]  



